Sources/FrostedUI/Resources/Icons.xcassets/twitter24.imageset/twitter-24.svg

<svg width="25" height="24" viewBox="0 0 25 24" fill="none" xmlns="http://www.w3.org/2000/svg" data-fui-icon="true">
  <path
    d="M16.3278 2.25C17.7098 2.25 18.9737 2.76756 19.9264 3.61523C20.6035 3.45309 21.2499 3.21313 21.8531 2.90234C22.2166 2.71506 22.6257 2.7892 22.8971 3.02246C23.1788 3.26486 23.3194 3.69043 23.1344 4.09961C23.0822 4.21503 23.0246 4.32767 22.9645 4.43848C23.6501 4.15747 24.2854 4.93964 23.8678 5.55469C23.2752 6.42831 22.5415 7.20518 21.7037 7.85352C21.705 7.92636 21.7096 7.99943 21.7096 8.07227C21.7095 14.411 16.8069 21.75 7.82483 21.75C5.38488 21.7499 3.09195 21.1264 1.09827 20.0342C0.643153 19.7847 0.545253 19.2898 0.658813 18.9316C0.769438 18.5833 1.10948 18.2546 1.59241 18.2686L1.8512 18.2715C3.19827 18.2715 4.47135 17.9638 5.60413 17.4189C4.27965 16.8733 3.22174 15.8197 2.68616 14.501C2.52228 14.0972 2.64578 13.7349 2.89026 13.499C1.68067 12.53 0.903931 11.051 0.903931 9.3877C0.904022 8.97051 1.21334 8.66585 1.57483 8.61133C1.17188 7.86801 0.942017 7.0181 0.942017 6.11523C0.942047 5.25597 1.15119 4.44227 1.52014 3.72266C1.823 3.13218 2.55477 3.08381 2.9762 3.46289L3.05627 3.54492L3.26038 3.77539C5.20793 5.92011 7.91448 7.3812 10.9684 7.75195C10.9657 7.68341 10.9625 7.61415 10.9625 7.54492C10.9628 4.60951 13.3763 2.25033 16.3278 2.25ZM16.3278 3.75C14.1827 3.75033 12.4628 5.45978 12.4625 7.54492C12.4625 7.84081 12.4973 8.12985 12.5621 8.41016L12.7858 9.37793L11.7936 9.32812C8.17435 9.14856 4.92216 7.60477 2.55334 5.20801C2.48053 5.4989 2.44203 5.80274 2.44202 6.11523C2.44202 7.42574 3.11977 8.58826 4.15784 9.27148L6.37854 10.7334L3.72131 10.6475C3.32629 10.6347 2.94147 10.578 2.5719 10.4854C2.97442 11.7929 4.07487 12.8087 5.46057 13.0986L5.46155 13.0996L5.50256 13.1074H5.50159L5.50647 13.1084L7.82776 13.5801L5.65784 14.5303C5.53174 14.5854 5.38819 14.6169 5.29065 14.6357C5.17647 14.6578 5.04821 14.6773 4.91956 14.6924C4.79173 14.7074 4.65396 14.7188 4.51819 14.7275C5.20501 15.6749 6.32436 16.3039 7.59827 16.3262L9.73694 16.3633L8.04358 17.6699C6.82153 18.6125 5.37159 19.2802 3.79163 19.585C5.05527 20.0147 6.41144 20.25 7.82483 20.25C15.8271 20.25 20.2095 13.7425 20.2096 8.07227C20.2096 7.89 20.2053 7.7044 20.1969 7.51953L20.1783 7.11035L20.5104 6.87402C20.6558 6.7705 20.7967 6.66 20.9352 6.54785C20.5428 6.54896 20.2641 6.27447 20.1656 6.00488C20.0591 5.71255 20.1093 5.2906 20.4694 5.03906L20.4948 5.01953C20.2791 5.07631 20.0606 5.12725 19.8395 5.16992L19.4371 5.24805L19.1549 4.95215C18.4496 4.21392 17.4442 3.75 16.3278 3.75Z"
    fill="currentColor"
  />
</svg>

<svg xmlns="http://www.w3.org/2000/svg" width="25" height="24" fill="none" data-fui-icon="true" viewBox="0 0 25 24"><path fill="currentColor" d="M16.328 2.25c1.382 0 2.646.518 3.598 1.365a8.6 8.6 0 0 0 1.927-.713.94.94 0 0 1 1.044.12.916.916 0 0 1 .237 1.078 5 5 0 0 1-.17.338c.686-.28 1.321.502.904 1.117a10 10 0 0 1-2.164 2.299c.001.072.006.145.006.218 0 6.339-4.903 13.678-13.885 13.678-2.44 0-4.733-.624-6.727-1.716a.93.93 0 0 1-.44-1.102.95.95 0 0 1 .934-.663l.26.003c1.346 0 2.62-.308 3.752-.853A5.35 5.35 0 0 1 2.686 14.5a.88.88 0 0 1 .204-1.002A5.26 5.26 0 0 1 .904 9.388c0-.417.31-.722.67-.777a5.232 5.232 0 0 1-.055-4.889c.304-.59 1.036-.638 1.457-.26l.08.083.204.23a12.42 12.42 0 0 0 7.708 3.977q-.004-.103-.005-.207c0-2.935 2.413-5.295 5.365-5.295m0 1.5c-2.145 0-3.865 1.71-3.865 3.795q0 .445.1.865l.223.968-.992-.05a13.94 13.94 0 0 1-9.24-4.12q-.11.437-.112.907c0 1.31.678 2.473 1.716 3.156l2.22 1.462-2.657-.085a5.5 5.5 0 0 1-1.15-.163 3.84 3.84 0 0 0 2.89 2.614l.042.008h-.001l.004.001 2.322.472-2.17.95c-.126.055-.27.087-.367.106a5 5 0 0 1-.371.056 8 8 0 0 1-.402.035 3.88 3.88 0 0 0 3.08 1.6l2.139.036-1.693 1.307a10.1 10.1 0 0 1-4.252 1.915c1.263.43 2.62.665 4.033.665 8.002 0 12.385-6.507 12.385-12.178q0-.275-.013-.552l-.019-.41.332-.236q.218-.156.425-.326a.83.83 0 0 1-.466-1.509l.026-.02q-.324.086-.655.15l-.403.08-.282-.297a3.9 3.9 0 0 0-2.827-1.202"/></svg>
